icons/animate-filled.svg

<svg width="256" height="256" viewBox="0 0 256 256" fill="none" xmlns="http://www.w3.org/2000/svg">
<path d="M196 0H60C26.8629 0 0 26.8629 0 60V196C0 229.137 26.8629 256 60 256H196C229.137 256 256 229.137 256 196V60C256 26.8629 229.137 0 196 0Z" fill="#00005B"/>
<path d="M104.81 155.9H67.7096L60.1096 179.4C60.0246 179.828 59.7826 180.209 59.4311 180.468C59.0795 180.728 58.6438 180.846 58.2096 180.8H39.2096C38.1096 180.8 37.8096 180.2 38.1096 179L70.4096 86.7C70.7096 85.7 71.0096 84.9 71.4096 83.6C71.812 81.4568 72.0129 79.2806 72.0096 77.1C71.9796 76.8496 72.0454 76.597 72.1937 76.393C72.3421 76.1891 72.5621 76.0487 72.8096 76H98.8096C99.6096 76 100.01 76.3 100.11 76.8L136.51 179.1C136.81 180.2 136.51 180.7 135.51 180.7H114.61C114.256 180.734 113.902 180.642 113.609 180.441C113.317 180.24 113.104 179.942 113.01 179.6L104.81 155.9ZM73.5096 136H98.9096C98.3096 133.9 97.5096 131.4 96.6096 128.8C95.7096 126.2 94.8096 123.2 93.9096 120.2C93.0096 117.2 92.0096 114.1 91.0096 111C90.0096 107.9 89.1096 105 88.3096 102.1C87.5096 99.2 86.8096 96.7 86.1096 94.3H85.9096C85.0108 98.6584 83.8758 102.965 82.5096 107.2C81.0096 112 79.5096 117 77.9096 122C76.5096 127.1 75.0096 131.8 73.5096 136Z" fill="#9999FF"/>
<path d="M147.81 179.3V119.9C147.81 118.1 147.81 116 147.71 113.8C147.61 111.6 147.61 109.4 147.51 107.4C147.41 105.4 147.31 103.5 147.21 102.3C147.15 102.131 147.137 101.949 147.172 101.773C147.208 101.597 147.29 101.433 147.41 101.3C147.703 101.097 148.053 100.992 148.41 101H164.51C165.057 100.993 165.601 101.095 166.11 101.3C166.318 101.41 166.498 101.567 166.637 101.758C166.775 101.948 166.869 102.168 166.91 102.4C167.11 103 167.41 103.8 167.61 104.6C167.906 105.68 168.107 106.785 168.21 107.9C171.327 105.193 174.922 103.09 178.81 101.7C182.71 100.389 186.795 99.7136 190.91 99.7C194.103 99.6936 197.277 100.2 200.31 101.2C203.808 102.337 206.998 104.263 209.634 106.829C212.269 109.396 214.28 112.533 215.51 116C217.11 120.1 217.71 125.5 217.71 132V179.3C217.71 180.3 217.31 180.7 216.41 180.7L197.61 180.9C197.425 180.931 197.236 180.924 197.054 180.88C196.873 180.836 196.702 180.755 196.552 180.643C196.403 180.531 196.277 180.389 196.184 180.227C196.091 180.065 196.031 179.886 196.01 179.7V134.5C195.938 131.505 195.293 128.552 194.11 125.8C193.234 123.667 191.711 121.864 189.755 120.643C187.8 119.423 185.51 118.848 183.21 119C180.609 118.961 178.026 119.436 175.61 120.4C173.408 121.317 171.379 122.602 169.61 124.2V179.4C169.61 180.4 169.21 180.8 168.31 180.8H149.31C149.145 180.822 148.978 180.811 148.817 180.768C148.657 180.724 148.507 180.649 148.377 180.546C148.246 180.444 148.138 180.316 148.057 180.171C147.977 180.025 147.927 179.865 147.91 179.7C147.71 179.5 147.71 179.4 147.81 179.3Z" fill="#9999FF"/>
</svg>

<svg xmlns="http://www.w3.org/2000/svg" width="256" height="256" fill="none"><path fill="#00005B" d="M196 0H60C26.863 0 0 26.863 0 60v136c0 33.137 26.863 60 60 60h136c33.137 0 60-26.863 60-60V60c0-33.137-26.863-60-60-60"/><path fill="#99F" d="M104.81 155.9h-37.1l-7.6 23.5a1.75 1.75 0 0 1-1.9 1.4h-19c-1.1 0-1.4-.6-1.1-1.8l32.3-92.3c.3-1 .6-1.8 1-3.1a35 35 0 0 0 .6-6.5 1 1 0 0 1 .8-1.1h26c.8 0 1.2.3 1.3.8l36.4 102.3c.3 1.1 0 1.6-1 1.6h-20.9a1.51 1.51 0 0 1-1.6-1.1zM73.51 136h25.4c-.6-2.1-1.4-4.6-2.3-7.2s-1.8-5.6-2.7-8.6-1.9-6.1-2.9-9.2-1.9-6-2.7-8.9-1.5-5.4-2.2-7.8h-.2a123 123 0 0 1-3.4 12.9c-1.5 4.8-3 9.8-4.6 14.8-1.4 5.1-2.9 9.8-4.4 14m74.3 43.3v-59.4c0-1.8 0-3.9-.1-6.1s-.1-4.4-.2-6.4-.2-3.9-.3-5.1a1 1 0 0 1 .2-1 1.7 1.7 0 0 1 1-.3h16.1a4.1 4.1 0 0 1 1.6.3 1.55 1.55 0 0 1 .8 1.1c.2.6.5 1.4.7 2.2.296 1.08.497 2.185.6 3.3a33.2 33.2 0 0 1 10.6-6.2 38.4 38.4 0 0 1 12.1-2 29.8 29.8 0 0 1 9.4 1.5 24 24 0 0 1 15.2 14.8c1.6 4.1 2.2 9.5 2.2 16v47.3c0 1-.4 1.4-1.3 1.4l-18.8.2a1.4 1.4 0 0 1-1.058-.257 1.38 1.38 0 0 1-.542-.943v-45.2a23.5 23.5 0 0 0-1.9-8.7 10.995 10.995 0 0 0-10.9-6.8 19.7 19.7 0 0 0-7.6 1.4 21 21 0 0 0-6 3.8v55.2c0 1-.4 1.4-1.3 1.4h-19a1.24 1.24 0 0 1-1.253-.629 1.3 1.3 0 0 1-.147-.471c-.2-.2-.2-.3-.1-.4"/></svg>
